X:1
T:White Christmas
T:White Christmas
T:Irving Berlin
C:Irving Berlin
%%score { 1 | 2 }
L:1/8
M:4/4
K:Bb
V:1 treble nm="Piano" snm="Pno."
V:2 bass 
V:1
 B,2 F2 B2 f2 | b2 f2 d2 B2 | z8 |"^Bb" D8 | E2 D2 ^C2 D2 |"^Cm7" E8 |"^F7" =E2 F6 | %7
w: |||I'm|drea- ming of a|white|christ- mas|
"^Eb" z2 G2 A2 B2 |"^F" c2 B2 A2 G2 |"^Bbmaj" F8- |"^Bb6" F4 B,2 C2 |"^Bb" D4"^Bbmaj" D4 | %12
w: just like the|ones I used to|know|_ where the|tree- tops|
"^Bb7" D2 G4 F2 |"^Eb" B,4 B,4 |"^Ebm" B,2 F4 E2 |"^Bb" D8 |"^Cm7" E2 D2"^C7" C2 B,2 | %17
w: glis- ten and|child- ren|lis- ten to|hear|sleig- bells in the|
"^Cm7/F" C8- |"^F7" C6 z2 |"^Bb" D8 | E2 D2 ^C2 D2 |"^Cm7" E8 |"^F7" =E2 F6 |"^Eb" z2 G2 A2 B2 | %24
w: snow|_|I'm|drea- ming of a|white|christ- mas|with eve- ry|
"^F" c2 B2 A2 G2 |"^Bbmaj" F8- |"^Bb6" F4 B,2 C2 |"^Bb" D4"^Bbmaj" D4 |"^Bb7" D2 G4 F2 |"^Eb" B8- | %30
w: christ- mas- card I|write|_ may your|days be|mer- ry and|bright|
"^Ebm" B4 B,2 C2 |"^Bb/F" D4"^Gm7" D4 |"^Cm" G2 A,2"^F7" A,2 A,2 |"^Bb" B,8- | B,8 |] %35
w: _ and may|all your|christ- mas- es be|white|_|
V:2
 B,,8- | B,,8 | !arpeggio![B,,B,DF]8 | B,,2 F,2 B,2 F,2 | G,2 F,2 =E,2 F,2 | C,2 G,2 C2 G,2 | %6
 ^G,2 A,2 F,2 C,2 | E,2 B,2 E2 B,2 | F,2 C2 F2 C2 | B,,2 F,2 B,2 F,2 | B,,2 F,2 G,2 F,2 | %11
 B,,2 F,2 A,2 F,2 | B,,2 F,2 _A,2 F,2 | E,,2 B,,2 G,2 B,,2 | E,2 B,,2 _G,2 B,,2 | %15
 B,,2 F,2 B,2 F,2 | G,2 F,2 =E,2 G,2 | E,2 G,2 C2 G,2 | F,2 C2 F2 C2 | B,,2 F,2 B,2 F,2 | %20
 G,2 F,2 =E,2 F,2 | C,2 G,2 C2 G,2 | ^G,2 A,2 F,2 C,2 | E,2 B,2 E2 B,2 | F,2 C2 F2 C2 | %25
 B,,2 F,2 B,2 F,2 | B,,2 F,2 G,2 F,2 | B,,2 F,2 A,2 F,2 | B,,2 F,2 _A,2 F,2 | E,,2 B,,2 G,2 B,,2 | %30
 E,2 B,,2 _G,2 B,,2 | B,,2 D,2 G,2 D,2 | C,2 E,2 F,2 C,2 | B,,2 D,2 F,2 B,2 | F,2 D,2 B,,4 |] %35

